assets/icons/emoji/emoji-angry.svg

<?xml version="1.0" encoding="UTF-8"?>
<svg viewBox="0 0 22 22" xmlns="http://www.w3.org/2000/svg">
<path d="m11 21c5.5228 0 10-4.4772 10-10 0-5.5228-4.4772-10-10-10-5.5228 0-10 4.4772-10 10 0 5.5228 4.4772 10 10 10z" fill="#FFD93B"/>
<path d="m20.952 11c0 5.525-4.4781 10-10 10-3.1437 0-5.95-1.45-7.7843-3.7219 1.7156 1.3875 3.9 2.2156 6.2781 2.2156 5.5219 0 10-4.475 10-10 0-2.3781-0.8281-4.5625-2.2156-6.2781 2.2687 1.8344 3.7218 4.6406 3.7218 7.7844z" fill="#F4C534"/>
<path d="m18.823 10.051c0 1.7875-1.635 3.2375-3.6575 3.2375-2.0169 0-3.6575-1.45-3.6575-3.2375 0-1.7875 1.6406-3.2375 3.6575-3.2375 2.0225 0 3.6575 1.45 3.6575 3.2375z" fill="#F4C534"/>
<path d="m15.166 12.602c1.5926 0 2.8837-1.1422 2.8837-2.5512 0-1.4091-1.2911-2.5513-2.8837-2.5513-1.5927 0-2.8838 1.1422-2.8838 2.5513 0 1.409 1.2911 2.5512 2.8838 2.5512z" fill="#fff"/>
<path d="m15.589 10.117c0 0.7468-0.6025 1.3493-1.3494 1.3493s-1.3494-0.6025-1.3494-1.3493c0-0.74192 0.6025-1.3494 1.3494-1.3494s1.3494 0.6075 1.3494 1.3494z" fill="#3E4347"/>
<path d="m14.883 9.4738c-0.1535-0.15352-0.3615-0.19448-0.4645-0.09148s-0.062 0.31096 0.0915 0.46448 0.3615 0.19452 0.4645 0.09148c0.103-0.103 0.062-0.31095-0.0915-0.46448z" fill="#fff"/>
<path d="m15.829 6.4282c-1.5431 0.82312-3.0769 1.9094-4.5437 3.2319 1.085-1.9025 2.2431-3.52 3.5262-4.6775 0.19-0.175 0.4319-0.24687 0.6706-0.22625 0.2175 0.01875 0.4325 0.12 0.5925 0.29813 0.3838 0.4275 0.2644 1.1062-0.2456 1.3738z" fill="#3E4347"/>
<path d="m3.1768 10.051c0 1.7875 1.635 3.2375 3.6575 3.2375 2.0169 0 3.6575-1.45 3.6575-3.2375 0-1.7875-1.6407-3.2375-3.6575-3.2375-2.0225 0-3.6575 1.45-3.6575 3.2375z" fill="#F4C534"/>
<path d="m6.8344 12.602c1.5927 0 2.8838-1.1422 2.8838-2.5512 0-1.4091-1.2911-2.5513-2.8838-2.5513-1.5926 0-2.8838 1.1422-2.8838 2.5513 0 1.409 1.2911 2.5512 2.8838 2.5512z" fill="#fff"/>
<path d="m9.1099 10.117c0 0.7468-0.6025 1.3493-1.3494 1.3493-0.74688 0-1.3494-0.6025-1.3494-1.3493 0-0.74192 0.6025-1.3494 1.3494-1.3494 0.74687 0 1.3494 0.6075 1.3494 1.3494z" fill="#3E4347"/>
<path d="m8.4046 9.473c-0.15353-0.15353-0.36148-0.19449-0.46448-0.09149-0.103 0.10301-0.06204 0.31096 0.09148 0.46448 0.15352 0.15353 0.36148 0.19446 0.46448 0.09148 0.103-0.103 0.06204-0.31095-0.09148-0.46447z" fill="#fff"/>
<path d="m6.1715 6.4282c1.5438 0.82312 3.0769 1.9094 4.5438 3.2319-1.085-1.9025-2.2431-3.52-3.5263-4.6775-0.19-0.175-0.43125-0.24687-0.67062-0.22625-0.2175 0.01875-0.4325 0.12-0.5925 0.29813-0.38375 0.4275-0.26438 1.1062 0.24562 1.3738z" fill="#3E4347"/>
<path d="m13.959 16.12c-1.6075-1.3975-4.7662 0.1819-6.7994 1.4769-0.25562 0.165-0.5225-0.1763-0.3125-0.3919 5.3682-5.5044 7.0156-3.0331 7.5156-1.3519 0.0681 0.2325-0.2163 0.4263-0.4038 0.2669z" fill="#3E4347"/>
</svg>

<svg width="22" height="22" viewBox="0 0 22 22" fill="none" xmlns="http://www.w3.org/2000/svg">
<path d="M11 21C16.5228 21 21 16.5228 21 11C21 5.47715 16.5228 1 11 1C5.47715 1 1 5.47715 1 11C1 16.5228 5.47715 21 11 21Z" fill="#FFD93B"/>
<path d="M20.9523 11C20.9523 16.525 16.4742 21 10.9523 21C7.80859 21 5.00234 19.55 3.16797 17.2781C4.88359 18.6656 7.06797 19.4937 9.44609 19.4937C14.968 19.4937 19.4461 15.0187 19.4461 9.4937C19.4461 7.11558 18.618 4.9312 17.2305 3.21558C19.4992 5.04995 20.9523 7.8562 20.9523 11Z" fill="#F4C534"/>
<path d="M18.8231 10.0512C18.8231 11.8387 17.1881 13.2887 15.1656 13.2887C13.1487 13.2887 11.5081 11.8387 11.5081 10.0512C11.5081 8.26372 13.1487 6.81372 15.1656 6.81372C17.1881 6.81372 18.8231 8.26372 18.8231 10.0512Z" fill="#F4C534"/>
<path d="M15.1655 12.6025C16.7581 12.6025 18.0492 11.4603 18.0492 10.0513C18.0492 8.64223 16.7581 7.5 15.1655 7.5C13.5728 7.5 12.2817 8.64223 12.2817 10.0513C12.2817 11.4603 13.5728 12.6025 15.1655 12.6025Z" fill="white"/>
<path d="M15.5889 10.117C15.5889 10.8638 14.9864 11.4663 14.2395 11.4663C13.4926 11.4663 12.8901 10.8638 12.8901 10.117C12.8901 9.37508 13.4926 8.76758 14.2395 8.76758C14.9864 8.76758 15.5889 9.37508 15.5889 10.117Z" fill="#3E4347"/>
<path d="M14.8826 9.47378C14.7291 9.32026 14.5211 9.2793 14.4181 9.3823C14.3151 9.4853 14.3561 9.69326 14.5096 9.84678C14.6631 10.0003 14.8711 10.0413 14.9741 9.93826C15.0771 9.83526 15.0361 9.62731 14.8826 9.47378Z" fill="white"/>
<path d="M15.8289 6.42824C14.2858 7.25136 12.752 8.33761 11.2852 9.66011C12.3702 7.75761 13.5283 6.14011 14.8114 4.98261C15.0014 4.80761 15.2433 4.73574 15.482 4.75636C15.6995 4.77511 15.9145 4.87636 16.0745 5.05449C16.4583 5.48199 16.3389 6.16074 15.8289 6.42824Z" fill="#3E4347"/>
<path d="M3.17676 10.0512C3.17676 11.8387 4.81176 13.2887 6.83426 13.2887C8.85113 13.2887 10.4918 11.8387 10.4918 10.0512C10.4918 8.26372 8.85113 6.81372 6.83426 6.81372C4.81176 6.81372 3.17676 8.26372 3.17676 10.0512Z" fill="#F4C534"/>
<path d="M6.83443 12.6025C8.42709 12.6025 9.71819 11.4603 9.71819 10.0513C9.71819 8.64223 8.42709 7.5 6.83443 7.5C5.24178 7.5 3.95068 8.64223 3.95068 10.0513C3.95068 11.4603 5.24178 12.6025 6.83443 12.6025Z" fill="white"/>
<path d="M9.10988 10.117C9.10988 10.8638 8.50738 11.4663 7.76051 11.4663C7.01363 11.4663 6.41113 10.8638 6.41113 10.117C6.41113 9.37508 7.01363 8.76758 7.76051 8.76758C8.50738 8.76758 9.10988 9.37508 9.10988 10.117Z" fill="#3E4347"/>
<path d="M8.40459 9.47305C8.25106 9.31952 8.04311 9.27856 7.94011 9.38156C7.83711 9.48457 7.87807 9.69252 8.03159 9.84604C8.18511 9.99957 8.39307 10.0405 8.49607 9.93752C8.59907 9.83452 8.55811 9.62657 8.40459 9.47305Z" fill="white"/>
<path d="M6.17153 6.42824C7.71528 7.25136 9.24841 8.33761 10.7153 9.66011C9.63028 7.75761 8.47216 6.14011 7.18903 4.98261C6.99903 4.80761 6.75778 4.73574 6.51841 4.75636C6.30091 4.77511 6.08591 4.87636 5.92591 5.05449C5.54216 5.48199 5.66153 6.16074 6.17153 6.42824Z" fill="#3E4347"/>
<path d="M13.9593 16.12C12.3518 14.7225 9.19308 16.3019 7.15995 17.5969C6.90433 17.7619 6.63745 17.4206 6.84745 17.205C12.2156 11.7006 13.8631 14.1719 14.3631 15.8531C14.4312 16.0856 14.1468 16.2794 13.9593 16.12Z" fill="#3E4347"/>
</svg>
